X: 11347
T: Earl Of Breadalbane
R: reel
M: 4/4
K: Eminor
|e|:(3EEE (EF) (~B3^c)|{^c}dBAd {G}FDAF|(3EEE (EF) ~B3 g|fdB^d ~(e3f):|
{f}(gf)ef {f}(gf)eg|~(fe)(da) fadf|{f}(gf)(ef) {f}gfeg|fdB^d ~(e3f)|
{f}(gf)ef {f}(gf)eg|~(fe)da fadf|gbeg bgeg|fdB^d ~(e3f)||

